X: 23
T: No_11_Corn_Dance_Song_(g).krn
N: Derived from No_11_Corn_Dance_Song_(g).krn
%%abc-version 2.0
%%abcx-abcm2ps-target-version 5.9.1 (29 Sep 2008)
%%abc-creator hum2abc beta
%%abcx-conversion-date 2019/03/15 08:38:45
%%humdrum-veritas 2963499736
%%humdrum-veritas-data 1687542210
%%linebreak <none>
%%barnumbers 0
L: 1/8
M: 2/4
K: D clef=bass
[K:clef=bass][M:2/4]z2D,2 ]|:  
A,2A,2 | 
F,2G,2 ||  
[M:3/4](F,2D,2)(F,3/D,/) | 
D,2z2A,2 ||  
[M:2/4](A,3/F,/) F,G, | 
(F,3/D,//) z//G,2 ||  
[M:3/4]F,2D,2F,3/D,/ ||  
[M:2/4]D,2z2 | 
D,4 | 
D,2C, z | 
D,4 ||  
[M:3/4]D,2z2D,2 :|]  
[M:2/4]D,2F,D, | 
F,2(F,3/D,/) | 
D,2F,3/D,/ ||  
[M:3/4]D,2z2A,2 ||  
[M:2/4]F,2G,2 | 
F,D,/ z/G,2 ||  
[M:3/4]F,2D,2(F,3/D,/) ||  
[M:2/4]D,4 | 
D,4 | 
D,2C, z | 
D,4 ||  
[M:3/4]D,2z2D,2 ||  
[M:2/4]A,2A,2 | 
F,2F,2 ||  
[M:3/4](F,3/D,/)D,2(F,3/D,/) | 
D,2z2A,2 ||  
[M:2/4]A,2F,G, | 
(F,D,/) z/G,2 ||  
[M:3/4](F,2D,2)(F,3/D,/) ||  
[M:2/4]D,2z2 | 
D,4 | 
D,2C, z | 
D,4 ||  
[M:3/4]D,4A,2 ||  
[M:2/4]F,2F,G, | 
F,D,/ z/G,2 ||  
[M:3/4](F,3/D,/)D,2(F,3/D,/) ||  
[M:2/4]D,2z2 | 
D,4 | 
D,2C, z | 
D,4 ||  
[M:3/4]D,4D,D, ||  
[M:2/4]A,2A,2 | 
F,2G,G, ||  
[M:3/4](F,3/D,/)D,2(F,3/D,/) | 
D,2z2A,/A,3/ ||  
[M:2/4]A,2F,G, | 
F,D,/ z/ G,/G,3/ ||  
[M:3/4]F,2D,2F,3/D,/ ||  
[M:2/4]D,4 | 
C,4 | 
C,2C, z ||  
[M:3/4]D,4D,D, ||  
[M:2/4]A,2A,A, | 
F,2G,G, ||  
[M:3/4]F,2D,2(F,3/D,/) | 
D,2z2A,A, ||  
[M:2/4]A,2F,G, | 
F,D,/ z/ G,G, ||  
[M:3/4]F,2D,2F,3/D,/ ||  
[M:2/4]D,4 | 
C,4 | 
C,2C, z ||  
[M:3/4]D,2z2G,G, | 
F,2D,2F,3/D,/ ||  
[M:2/4]D,4 | 
C,4 | 
C,2C, z | 
D,4 ||  
[M:3/4]D,2F,3/D,/ G,/G,3/ | 
F,2D,2F,3/D,/ | 
D,2z2D,/D,3/ ||  
[M:2/4]A,2A,2 | 
F,2G,/G,3/ ||  
[M:3/4]F,2D,2(F,3/D,/) ||  
[M:2/4]D, z A,/A,3/ | 
A,2F,3/G,/ | 
F,3/D,/ G,/G,3/ ||  
[M:3/4]F,2D,2F,3/D,/ | 
D,4z2 |]  



